X:23
T:Scheming Jockey. THO5.023, The
M:6/8
L:1/8
B:Thompson's Complete Collection of 200 Favourite Dances Vol.5
F:https://www.libraryofdance.org/manuals/1780c-Thompson-Compleat-5.pdf
Z:vmp. Peter Dunk 2024
Q:3/8=100
K:G
GBd dBd|dBd dBd|efg dcB|ecA A3|
GBd dBd|dBd dBd|gab dgd|BGG G2:|
|:gbg dBd|gbg dBd|gab dcB|ecA A3|
gbg dBd|gbg dBd|gfe dBg|dBG G3:|
W:
W:Right hands across Left hands, back again ./.
W:Cross over and back to back ./:
W:Lead through the bottom, same through the top and cast off :/.
W:Lead outsides :/:

